images/Cyprus_warning_road_sign_crossroads.svg

<svg width="361" height="319" viewBox="0 0 361 319" fill="none" xmlns="http://www.w3.org/2000/svg">
<path fill-rule="evenodd" clip-rule="evenodd" d="M23.9776 318.1C15.3921 318.1 7.52112 313.578 3.2901 306.194C-0.963359 298.82 -0.963359 289.715 3.2901 282.319L159.446 11.975C163.722 4.60165 171.544 0.10006 180.04 0.10006C180.071 0.10006 180.103 0.0999393 180.134 0.10006C180.165 0.0999393 180.196 0.10006 180.227 0.10006C188.723 0.10006 196.545 4.60164 200.821 11.975L356.978 282.319C361.231 289.715 361.231 298.82 356.978 306.194C352.747 313.578 344.876 318.1 336.29 318.1H23.9776Z" fill="#EC1D24"/>
<path fill-rule="evenodd" clip-rule="evenodd" d="M37.755 286.283H322.513L180.134 39.8065L37.755 286.283Z" fill="white"/>
<path d="M118 250.834L140.268 273L180 233.449L219.732 273L242 250.834L202.268 211.283L241.563 172.166L219.296 150L180 189.117L140.704 150L118.437 172.166L157.732 211.283L118 250.834Z" fill="black"/>
</svg>

<svg width="361" height="319" fill="none" xmlns="http://www.w3.org/2000/svg"><path fill-rule="evenodd" clip-rule="evenodd" d="M23.978 318.1c-8.586 0-16.457-4.522-20.688-11.906a23.93 23.93 0 0 1 0-23.875L159.446 11.975A23.766 23.766 0 0 1 180.04.1h.187a23.766 23.766 0 0 1 20.594 11.875l156.157 270.344a23.933 23.933 0 0 1 0 23.875c-4.231 7.384-12.102 11.906-20.688 11.906H23.978z" fill="#EC1D24"/><path fill-rule="evenodd" clip-rule="evenodd" d="M37.755 286.283h284.758L180.134 39.806 37.755 286.284z" fill="#fff"/><path d="M118 250.834 140.268 273 180 233.449 219.732 273 242 250.834l-39.732-39.551 39.295-39.117L219.296 150 180 189.117 140.704 150l-22.267 22.166 39.295 39.117L118 250.834z" fill="#000"/></svg>
